X:1
T: Lady Harriet's Reel
C:
R:Reel
Q: 232
K:D
M:4/4
L:1/8
((3DDD) AF D2 fe|dB AF ED EF|((3DDD) AF D2 fd|Bc de fd d2|
((3DDD) AF D2 fe|dB AF ED EF|((3DDD) AF D2 fd|Bc de fd d2|
|:e3f gf ed|cd ef gf eg|fd cd Bd AF|Ad eg fd dg|
fd cd Bd AF|GB AF BE EF|DF EG FA GB|Ad eg fd d2:|
((3DDD) AF D2 fe|dB AF ED EF|((3DDD) AF D2 fd|Bc de fd d2|
((3DDD) AF D2 fe|dB AF ED EF|((3DDD) AF D2 fd|Bc de fd d2||
